!!!!SEGMENT: pl-kk--kk-i-382--045-002_lobmann-j--msza-na-3-glosy-sanctus.krn
!!!id: 18xx:1545
!!!COM: Löbmann, J.
!!!COM-rism: pe30015898
!!!CDT: ~1800-~1899
!!!CNT:
!!!OTL: Msza na 3 głosy – Sanctus
!!!PDT:
!!!SMS-siglum: PL-Kk
!!!SMS-shelfmark: Kk.I.382
!!!NIFC-rismID: 1001140396
!!!URL-scan: http://repozytorium.nifc.pl/skany/pl-kk-nut--i-382
!!!ONB-nifc: UWAGA: obsada: S (T 1), T 2, B 2; S (T 1): skan 0037,T 2: skan 0108, B 2: skan 0256. Osobne części Mszy: Kyrie, Sanctus, Benedictus, Agnus Dei
!!!SMS-variant:
!!!SMS-altvar:
**kern	**text	**kern	**text	**kern	**text
*part3	*part3	*part2	*part2	*part1	*part1
*staff3	*staff3	*staff2	*staff2	*staff1	*staff1
*I"Basso II	*	*I"Tenore I	*	*I"Soprano vel Tenore I.	*
*I'B 2	*	*I'T 2	*	*I'S (T 1)	*
*clefF4	*	*clefG2	*	*clefG2	*
*k[f#c#g#]	*	*k[f#c#g#]	*	*k[f#c#g#]	*
*M4/2	*	*M4/2	*	*M4/2	*
=1	=1	=1	=1	=1	=1
!LO:TX:a:i:B:t=Sanctus.	!	!LO:TX:a:i:B:t=Sanctus	!	!LO:TX:a:i:B:t=Sanctus	!
!LO:TX:t=P:problem:napis "Sanctus." na pięciolinii przed kluczem	!	!LO:TX:t=P:problem:napis "Sanctus" na pięciolinii przed kluczem	!	!LO:TX:t=P:problem:napis "Sanctus" na pięciolinii przed kluczem	!
!LO:TX:t=P:problem:all\right:global	!	!LO:TX:i:a:t=Maestoso	!	!LO:TX:i:a:t=Maestoso	!
!LO:TX:a:t=Maestoso	!	!LO:TX:t=P:problem:all\right:global	!	!LO:TX:t=P:problem:all\right:global	!
0AA	Sanc-	0e	Sanc-	0cc#	Sanc-
=2	=2	=2	=2	=2	=2
*2\right	*	*2\right	*	*2\right	*
2AA/	-tus	2e/	-tus	2cc#\	-tus
2r	.	2r	.	2r	.
1r	.	1r	.	1r	.
=3	=3	=3	=3	=3	=3
0F#	Sanc-	0a	Sanc-	0cc#	Sanc-
=4	=4	=4	=4	=4	=4
2F#\	-tus	2a/	-tus	2cc#\	-tus
2r	.	2r	.	2r	.
1r	.	1r	.	1r	.
!LO:LB:g=original	!	!LO:LB:g=original	!	!LO:LB:g=original	!
=5	=5	=5	=5	=5	=5
1D	sanc-	1.a	Sanc-	1ff#	Sanc-
1D	-tus	.	.	1ff#	-tus
.	.	2dd\	-tus	.	.
=6	=6	=6	=6	=6	=6
2A\	Do-	(>2dd\	Do-	2.ee\	Do-
2A\	-mi-	4cc#\)	.	.	.
.	.	4b\	-mi-	4ee\	-mi-
1A	-nus	1cc#	-nus	1ee	-nus
=7	=7	=7	=7	=7	=7
2B\	Do-	1b	Do-	1dd	Do-
2BB/	.	.	.	.	.
2D\	-mi-	2b\	-mi-	2dd\	-mi-
2E\	-nus	2b\	-nus	2dd\	-nus
=8	=8	=8	=8	=8	=8
1F#	De-	2b\	De-	1cc#	De-
.	.	4a/	.	.	.
.	.	4g#/	.	.	.
1F#	-us	1a	-us	1cc#	-us
=9	=9	=9	=9	=9	=9
2G#\	Sa-	2b\	Sa-	1b	Sa-
2F#\	.	1a	.	.	.
2E\	.	.	.	2cc#\	-ba-
2D#X\	-ba-	2a/	-ba-	2b\	.
!LO:LB:g=original	!	!LO:LB:g=original	!	!LO:LB:g=original	!
=10	=10	=10	=10	=10	=10
2E\	-oth	2g#/	-oth	2b\	-oth
2G#X\	Ple-	2b\	Ple-	2b\	Ple-
2G#\	-ni	2b\	-ni	2cc#\	-ni
2F#\	sunt	2a/	sunt	2dd#X\	sunt
=11	=11	=11	=11	=11	=11
1C#	coe-	2g#/	coe-	1ee	coe-
.	.	2a/	-li	.	.
2G#\	-li	2b\	.	2dd#X\	-li
2G#\	et	2b\	et	2g#/	et
=12	=12	=12	=12	=12	=12
2A\	ter-	1a	ter-	1cc#	ter-
2C#/	.	.	.	.	.
1E	-ra	(>2a/	-ra	1b	-ra
.	.	2g#/)	.	.	.
=13	=13	=13	=13	=13	=13
(>2F#\	glo-	(<2.a/	glo-	(<2a/	glo-
4A\	.	.	.	2cc#\)	.
4G#\)	.	4b/)	.	.	.
2F#\	-ri-	2a/	-ri-	2dd#X\	-ri-
2E\	-a	2a/	-a	2ee\	-a
!LO:LB:g=original	!	!LO:LB:g=original	!	!	!
=14	=14	=14	=14	=14	=14
2D#X\	tu-	1a	tu-	1ff#	tu-
2C#/	.	.	.	.	.
2BB/	-a	1a	-a	1dd#X	-a
2BB#X/	.	.	.	.	.
!	!	!	!	!LO:LB:g=original	!
=15	=15	=15	=15	=15	=15
1C#	glo-	2g#/	glo-	1ee	glo-
.	.	2a/	.	.	.
2C#/	-ri-	2a#X/	-ri-	2ff#\	-ri-
2Cn/	-a	2a#/	-a	2ff##X\	-a
=16	=16	=16	=16	=16	=16
0BB	Tu-	2b\	tu-	1gg#	tu-
.	.	2ee\	.	.	.
.	.	2dd#X\	.	1ff#	.
.	.	2a/	.	.	.
=17	=17	=17	=17	=17	=17
1E	-a	1g#	-a	2ee\	-a
.	.	.	.	2b\	Ho-
1r	.	2r	.	2cc#\	-san-
.	.	2g#/	Ho-	2ee\	-na
=18	=18	=18	=18	=18	=18
2r	.	2a/	-san-	1r	.
2AA/	Ho-	2cc#\	-na	.	.
2C#/	-san-	2a/	in	2ee\	in
2F#\	-na	2a/	ex-	2cc#\	ex-
!LO:LB:g=original	!	!LO:LB:g=original	!	!	!
=19	=19	=19	=19	=19	=19
2BB/	in	2a/	-cel-	0dd	-cel-
2E\	ex-	2g#/	.	.	.
2F#\	-cel-	2a/	.	.	.
2G#\	.	2b/	.	.	.
!	!	!	!	!LO:LB:g=original	!
=20	=20	=20	=20	=20	=20
2A\	.	1a	-sis	1cc#	-sis
2G#\	-sis	.	.	.	.
2F#\	in	2a/	in	2dd\	in
2D\	ex-	(<4a/	ex-	2ff#\	ex-
.	.	4b\)	.	.	.
=21	=21	=21	=21	=21	=21
0E	-cel-	(>2cc#\	-cel-	1ee	-cel-
.	.	1a	.	.	.
.	.	.	.	1b	.
.	.	2g#/)	.	.	.
=22	=22	=22	=22	=22	=22
0AA	-sis.	0a;>	-sis.	0a	-sis.
==	==	==	==	==	==
*-	*-	*-	*-	*-	*-
!!!system-decoration: [(s1,s2,s3)]
!!!RDF**kern: > = above
!!!RDF**kern: < = below
!!!EED:Mateusz Mrugas
!!!EST:2021-02-10
!!!ENC: Andrzej Gręziak
!!!END: 2021-01-30
